X:1
T:Jam lucis
T:Jam lucis
T:André Vierendeels (15/09/10)
C:André Vierendeels
C:(15/09/10)
%%score [ 1 2 3 4 ]
L:1/8
Q:1/4=120
M:2/4
K:F
V:1 treble nm="Soprano" snm="S"
V:2 treble nm="Alto" snm="A"
V:3 treble-8 nm="Tenor" snm="T"
V:4 bass nm="Bass" snm="B"
V:1
 D4 |[M:2/2] F4 D4 | F4 G4 | A4 G4 | !fermata!F4 F4 | c4 c4 | A4 c4 | A4 G4 | !fermata!A4 G4 | %9
w: Jam|lu- cis|or- to|si- de-|re De-|um prae-|ce- mur|sup- pli-|ces, ut|
 A4 d4 | c4 A4 | F4 E4 | !fermata!D4 A4 | A4 G4 | F4 G4 | A6 G2 | !fermata!D4 A4 | A4 G4 | F4 E4 | %19
w: in di-|ur- nis|ac- ti-|bus nos|ser- vet|a no-|cen- ti-|bus. Ky-|ri- e|e- lei-|
 !fermata!D8 |] %20
w: son.|
V:2
 A,4 |[M:2/2] A,4 B,4 | D4 E4 | F4 D4 | !fermata!D4 CDEF | G4 AGFE | F4 G2 AB | EFED E4 | %8
w: Jam|lu- cis|or- to|si- de-|re De- * * *|um prae- * * *|ce- mur _ _|sup- * * * pli-|
 !fermata!^F4 D4 | F4 A2 F2 | E4 F4 | D4 A4 | !fermata!^F4 E=FGE | F4 E2 DC | D2 EF E4 | %15
w: es, ut|in di- *|ur- nis|ac- ti-|bus nos _ _ _|ser- vet _ _|a _ _ no-|
 E2 D^C DE^FG | !fermata!^F4 E4 | C4 E4 | A,4 A4 | F8 |] %20
w: cen- * * ti- * * *|bus. Ky-|ri- e|e- lei-||
V:3
 F4 |[M:2/2] c4 F4 | A4 c4 | c4 B4 | !fermata!A4 A4 | c4 c4 | ABcd e2 A2 | ^c4 cdec | %8
w: Jam|lu- cis|or- to|si- de-|re De-|um prae-|ce- * * * * mur|sup- pli- * * *|
 !fermata!d4 B4 | c4 A4 | c4 c4 | B4 d2 ^c2 | !fermata!A4 c4 | cBAB c4 | F4 GABc | d^c=BA Bcde | %16
w: ce, ut|in di-|ur- nis|ac- ti- *|bus nos|ser- * * * vet|a no- * * *|cen- * * * ti- * * *|
 !fermata!A4 c4 | F4 G4 | d2 ^cB c d2 c | !fermata!A8 |] %20
w: bus. Ky-|ri- e|e- * * lei- * *|son.|
V:4
 D,4 |[M:2/2] F,4 B,,4 | D,4 C,4 | F,4 G,4 | !fermata!D,4 F,4 | E,4 F,4 | D,4 C,E,F,G, | A,4 A,4 | %8
w: Jam|lu- cis|or- to|si- de-|re De-|um prae-|ce- mur _ _ _|sup- pli-|
 !fermata!D,4 G,4 | F,4 D,4 | A,4 F,4 | B,,4 A,,4 | !fermata!D,4 A,4 | F,4 C,4 | B,,4 C,4 | %15
w: ce, ut|in di-|ur- nis|ac- ti-|bs nos|ser- vet|a no-|
 A,4 A,,4 | !fermata!D,4 A,4 | F,4 C,4 | D,4 A,4 | !fermata!D,8 |] %20
w: cen- ti-|bus. Ky-|ri- e|e- lei-|son.|

